X: 2
M: C|
L: 1/8
K: C
c |\
cd |\
efga ge dc | ge cg ec ge | ce ge dc BA | B2G2 G2 AB |\
cA FA dB GB | ec Ac ge dg | agfe defg | e2c2 c2 |]


